icons/job/melee/RPR.svg

<svg viewBox="0 0 12.7 12.7" xmlns="http://www.w3.org/2000/svg">
  <g>
    <path d="M 5.8580369,0.6614583 C 5.6567474,0.66191024 5.4540441,1.1441774 4.036261,5.1045685 3.4725877,6.6791152 2.9850937,8.0910494 2.9128327,8.1690271 2.5623074,8.5472842 2.4417961,6.8039666 2.6892895,6.1360301 2.9193213,5.5152214 2.3532647,5.7196265 2.0147052,6.3837738 1.5353436,7.3241275 1.1407041,8.498208 2.0670752,9.6242467 c 0.2295667,0.2790499 0.3295942,0.4166673 0.2847074,0.5553343 -0.085923,0.265443 -0.3155109,1.015444 -0.3155109,1.299888 -0.1015771,0.452311 0.071321,0.833622 0.5117696,0.295707 0.2422997,-0.295919 0.5760563,-1.184356 0.6032991,-1.263363 0.07044,-0.204277 0.3464672,-0.0596 1.0525811,0.0088 C 6.2970023,10.673722 8.9342982,9.7678647 10.867048,7.9560576 11.549142,7.3166462 10.991088,7.2847519 10.739435,7.4948939 9.6277433,8.4232053 6.7724742,9.2166818 5.4862065,9.1617758 4.8627989,9.1351696 4.0580373,9.0902543 3.876531,8.9298722 3.8256748,8.8849336 3.9441744,8.4189085 4.124715,7.8583686 4.2341289,7.5186503 4.2864553,7.3590756 4.3825798,7.0011648 4.4155827,6.8782855 4.5161703,6.9368819 4.5911598,7.0552888 5.0699559,7.8113017 5.8841764,8.2887234 6.7790516,8.2891668 8.1922396,8.2891065 9.3378399,7.1435073 9.3378985,5.73032 9.3379309,4.9943923 9.0211207,4.2940747 8.4683749,3.8082138 8.3071199,3.5813077 8.350396,3.3997303 8.3548443,3.1274662 8.3631954,2.6215532 8.1411339,2.4986424 7.7383449,2.8154781 7.519545,2.9875788 7.3682688,3.2265273 7.1561685,3.1952325 7.0324935,3.1769852 6.8948566,3.1759267 6.7790516,3.1710289 6.4015114,3.1711934 6.0286844,3.2548964 5.6873058,3.416132 5.4202424,3.469553 5.5094668,3.257452 5.68916,2.6412175 6.0639407,1.3552897 6.2533068,0.77721547 5.9219435,0.67334615 5.8998026,0.66639331 5.8789595,0.66140272 5.8581396,0.66147996 Z M 6.779047,4.1967619 C 7.6258694,4.1969111 8.3122503,4.8834867 8.3121545,5.73031 8.3120063,6.5769616 7.6256971,7.2632684 6.779047,7.2634168 5.9322244,7.2635118 5.2456465,6.5771316 5.2454974,5.73031 5.2454031,4.8833152 5.9320514,4.1966676 6.779047,4.1967619 Z" />
  </g>
</svg>

<svg viewBox="0 0 12.7 12.7" xmlns="http://www.w3.org/2000/svg"><path d="M5.858.661c-.201 0-.404.483-1.822 4.444-.563 1.574-1.05 2.986-1.123 3.064-.35.378-.471-1.365-.224-2.033.23-.62-.336-.416-.674.248-.48.94-.874 2.114.052 3.24.23.28.33.417.285.556-.086.265-.316 1.015-.316 1.3-.101.452.072.833.512.295.242-.296.576-1.184.603-1.263.07-.204.347-.06 1.053.009 2.093.153 4.73-.753 6.663-2.565.682-.64.124-.671-.128-.461-1.111.928-3.967 1.722-5.253 1.667-.623-.027-1.428-.072-1.61-.232-.05-.045.068-.511.249-1.072.11-.34.161-.499.258-.857.033-.123.133-.064.208.054.479.756 1.293 1.234 2.188 1.234a2.559 2.559 0 0 0 1.69-4.48c-.162-.228-.119-.41-.114-.682.008-.505-.214-.628-.617-.312-.218.173-.37.412-.582.38-.124-.018-.261-.02-.377-.024-.377 0-.75.084-1.092.245-.267.054-.178-.159.002-.775.375-1.286.564-1.864.233-1.968a.212.212 0 0 0-.064-.012Zm.921 3.536a1.533 1.533 0 1 1 0 3.067 1.533 1.533 0 0 1 0-3.067Z"/></svg>
